!!!COM:	Bach, Johann Sebastian
!!!CDT:	1685/02/21/-1750/07/28/
!!!OTL@@DE:	Was mein Gott will, das g'scheh allzeit
!!!SCT:	BWV 65/7
!!!PC#:	41
!!!AGN:	chorale
**kern	**kern	**kern	**kern
*ICvox	*ICvox	*ICvox	*ICvox
*Ibass	*Itenor	*Ialto	*Isoprn
*I"Bass	*I"Tenor	*I"Alto	*I"Soprano
*>[A,A,B]	*>[A,A,B]	*>[A,A,B]	*>[A,A,B]
*>norep[A,B]	*>norep[A,B]	*>norep[A,B]	*>norep[A,B]
*>A	*>A	*>A	*>A
*clefF4	*clefGv2	*clefG2	*clefG2
*k[]	*k[]	*k[]	*k[]
*a:	*a:	*a:	*a:
*M4/4	*M4/4	*M4/4	*M4/4
*met(c)	*met(c)	*met(c)	*met(c)
*MM100	*MM100	*MM100	*MM100
4AA	4A	4c	4e
=1	=1	=1	=1
4E	4B	8eL	4g
.	.	8dJ	.
4F	8AL	8cL	4a
.	8BJ	8dJ	.
8CL	4c	8eL	4g
8DJ	.	8fJ	.
8EL	8cL	4g	4cc
8FJ	8dJ	.	.
=2	=2	=2	=2
4G	8eL	4g	4cc
.	16dL	.	.
.	16cJJ	.	.
4GG	4d	4g	4b
4C;	4e;	4g;	4cc;
4C	4e	4g	4cc
=3	=3	=3	=3
4G	4d	4g	4b
8DL	4d	8fL	4a
8EJ	.	8gJ	.
8FL	4A	2a	4.dd
8GJ	.	.	.
4A	[4e	.	.
.	.	.	8cc
=4	=4	=4	=4
8EL	4e]	4g#	4b
8D	.	.	.
8C	4e	2a	4cc
8AAJ	.	.	.
2E	4.e	.	2b
.	.	4g#	.
.	8d	.	.
=5	=5	=5	=5
2.AA;	2.c;	2.e;	2.a;
=:|!	=:|!	=:|!	=:|!
*>B	*>B	*>B	*>B
8AL	8cL	4e	4a
8GJ	8BJ	.	.
=6	=6	=6	=6
4F#	4A	8dL	4a
.	.	8eJ	.
8EL	4d	4f#	4a
8DJ	.	.	.
8GL	4.d	4.g	4.b
8D	.	.	.
8G	.	.	.
8F#J	8d#	8a	8a
=7	=7	=7	=7
8EL	4e	4g	4b
8BB	.	.	.
8E	4B	4e	4g
8DnXJ	.	.	.
8CL	4A	4e	4g
8AAJ	.	.	.
4D	4A	4d	4f#
=8	=8	=8	=8
4GG;	4B;	4d;	4g;
4C	4c	4e	4g
8cL	4A	4f#	4a
8BJ	.	.	.
8AL	4d	4f	4b
8G#J	.	.	.
=9	=9	=9	=9
4A	8cL	8eL	4cc
.	8dJ	8f#J	.
8EL	4e	4g#	4b
8DJ	.	.	.
8CL	8eL	4.a	2a
8BBJ	8d	.	.
4AA	8c	.	.
.	8F#J	8d#	.
=10	=10	=10	=10
4E;	4G#;	4e;	4b;
4E	8GL	4B	8eL
.	8AJ	.	8f#J
4E	4B	4e	4gnX
4D#	4c	4f#	4a
=11	=11	=11	=11
4E	4B	4e	4g
8AL	4c	4e	4cc
8GJ	.	.	.
4F#	4d	4a	4cc
4G	4d	4g	4b
=12	=12	=12	=12
4C;	4e;	4g;	4cc;
4AA	4e	4a	4cc
8DL	8fL	8aL	4b
8EJ	8eJ	8gJ	.
4F	8eL	8gL	4a
.	8dJ	8fJ	.
=13	=13	=13	=13
8BBL	8dL	4.f	4.dd
8CJ	8c	.	.
4D	8B	.	.
.	8AJ	8e	8cc
8GG#L	[2e	4d	4b
8E	.	.	.
8C	.	8cL	4cc
8AAJ	.	8dJ	.
=14	=14	=14	=14
2E	8eL]	2e	2b
.	8AJ	.	.
.	4G#	.	.
4AA;	4c#;	4e;	4a;
==	==	==	==
*-	*-	*-	*-
!!!hum2abc: -Q ''
!!!title: @{PC#}. @{OTL@@DE}
!!!YOR1: 371 vierstimmige Choralges&auml;nge von Johann Sebastian Bach, 
!!!YOR2: 4th ed. by Alfred D&ouml;rffel (Leipzig: Breitkopf und H&auml;rtel, 
!!!YOR2: c.1875). 178 pp. Plate "V.A.10".  reprint: J.S. Bach, 371 Four-Part 
!!!YOR4: Chorales (New York: Associated Music Publishers, Inc., c.1940).
!!!SMS: B&H, 4th ed, Alfred D&ouml;rffel, c.1875, plate V.A.10
!!!EED:  Craig Stuart Sapp
!!!EEV:  2009/05/22
